X:4922
T:F Schottis \#2
R:Schottische
O:France
M:4/4
K:Dm
AB|\
c3B BA GF|d3c BA GF|G2GA G2FG|A3B AG FE|
D3E F2EF|G2GA GF AG\
|1 F3G FG AB :|2 F3G FE FG::
F2FG F2EF|G3A GF AG|F3G FE DC|[F4C3]G FE FG|
F2FG F2EF|G3A GF BA\
|1 G3A GA AB :|2 G3A DD FG:|
